src/images/logo.svg

<?xml version="1.0" encoding="UTF-8" standalone="no"?>
  <svg xmlns:dc="http://purl.org/dc/elements/1.1/" xmlns:cc="http://creativecommons.org/ns#"
    xmlns:rdf="http://www.w3.org/1999/02/22-rdf-syntax-ns#" xmlns:svg="http://www.w3.org/2000/svg"
    xmlns="http://www.w3.org/2000/svg" xmlns:sodipodi="http://sodipodi.sourceforge.net/DTD/sodipodi-0.dtd"
    xmlns:inkscape="http://www.inkscape.org/namespaces/inkscape" width="100%" viewBox="0 0 396.87498 396.87501"
    version="1.1" id="svg8" inkscape:version="1.0 (1.0+r73+1)" sodipodi:docname="logo-mateus.svg">
    <defs id="defs2" />
    <sodipodi:namedview id="base" pagecolor="#ffffff" bordercolor="#666666" borderopacity="1.0"
      inkscape:pageopacity="0.0" inkscape:pageshadow="2" inkscape:zoom="0.24748737" inkscape:cx="671.79721"
      inkscape:cy="877.12625" inkscape:document-units="px" inkscape:current-layer="layer1"
      inkscape:document-rotation="0" showgrid="false" showguides="true" inkscape:guide-bbox="true"
      inkscape:pagecheckerboard="true" units="px" inkscape:window-width="1366" inkscape:window-height="703"
      inkscape:window-x="1680" inkscape:window-y="282" inkscape:window-maximized="1" fit-margin-top="0"
      fit-margin-left="0" fit-margin-right="0" fit-margin-bottom="0">
      <sodipodi:guide position="79.375,330.72917" orientation="0,1" id="guide833" inkscape:label=""
        inkscape:locked="false" inkscape:color="rgb(0,0,255)" />
      <sodipodi:guide position="211.66667,330.72917" orientation="0,1" id="guide835" inkscape:label=""
        inkscape:locked="false" inkscape:color="rgb(0,0,255)" />
      <sodipodi:guide position="79.375,198.4375" orientation="0,1" id="guide837" inkscape:label=""
        inkscape:locked="false" inkscape:color="rgb(0,0,255)" />
      <sodipodi:guide position="145.52083,198.4375" orientation="0,1" id="guide839" inkscape:label=""
        inkscape:locked="false" inkscape:color="rgb(0,0,255)" />
      <sodipodi:guide position="211.66667,198.43751" orientation="0,1" id="guide841" inkscape:label=""
        inkscape:locked="false" inkscape:color="rgb(0,0,255)" />
      <sodipodi:guide position="211.66667,66.145836" orientation="0,1" id="guide843" inkscape:label=""
        inkscape:locked="false" inkscape:color="rgb(0,0,255)" />
      <sodipodi:guide position="277.8125,198.43751" orientation="0,1" id="guide845" inkscape:label=""
        inkscape:locked="false" inkscape:color="rgb(0,0,255)" />
      <sodipodi:guide position="291.04167,198.43751" orientation="0,1" id="guide857" inkscape:label=""
        inkscape:locked="false" inkscape:color="rgb(0,0,255)" />
      <sodipodi:guide position="251.35417,264.58334" orientation="0,1" id="guide859" inkscape:label=""
        inkscape:locked="false" inkscape:color="rgb(0,0,255)" />
      <sodipodi:guide position="291.04167,330.72917" orientation="0,1" id="guide861" inkscape:label=""
        inkscape:locked="false" inkscape:color="rgb(0,0,255)" />
      <sodipodi:guide position="291.04167,66.145836" orientation="0,1" id="guide863" inkscape:label=""
        inkscape:locked="false" inkscape:color="rgb(0,0,255)" />
      <sodipodi:guide position="251.35417,132.29167" orientation="0,1" id="guide865" inkscape:label=""
        inkscape:locked="false" inkscape:color="rgb(0,0,255)" />
      <sodipodi:guide position="357.1875,231.51042" orientation="0,1" id="guide867" inkscape:label=""
        inkscape:locked="false" inkscape:color="rgb(0,0,255)" />
      <sodipodi:guide position="357.1875,165.36459" orientation="0,1" id="guide869" inkscape:label=""
        inkscape:locked="false" inkscape:color="rgb(0,0,255)" />
    </sodipodi:namedview>
    <metadata id="metadata5">
      <rdf:RDF>
        <cc:Work rdf:about="">
          <dc:format>image/svg+xml</dc:format>
          <dc:type rdf:resource="http://purl.org/dc/dcmitype/StillImage" />
          <dc:title />
        </cc:Work>
      </rdf:RDF>
    </metadata>
    <g inkscape:label="Layer 1" inkscape:groupmode="layer" id="layer1" transform="translate(79.375,66.145828)">
      <circle
        style="fill:#28a745;stroke-width:5.84866;stroke-linecap:round;stroke-linejoin:round;stroke-miterlimit:4;stroke-dasharray:none;fill-opacity:1"
        id="path885" cx="119.0625" cy="132.29167" r="198.4375" />
      <path
        style="fill:none;fill-rule:evenodd;stroke:#000000;stroke-width:15.875;stroke-linecap:round;stroke-linejoin:miter;stroke-miterlimit:4;stroke-dasharray:none;stroke-opacity:1"
        d="M 0,132.29167 V 7.792882e-7" id="path847" inkscape:connector-type="polyline"
        inkscape:connector-curvature="0" />
      <path
        style="fill:none;fill-rule:evenodd;stroke:#000000;stroke-width:15.875;stroke-linecap:round;stroke-linejoin:miter;stroke-miterlimit:4;stroke-dasharray:none;stroke-opacity:1"
        d="M 66.145833,132.29167 0,7.792882e-7" id="path849" inkscape:connector-type="polyline"
        inkscape:connector-curvature="0" />
      <path
        style="fill:none;fill-rule:evenodd;stroke:#000000;stroke-width:15.875;stroke-linecap:round;stroke-linejoin:miter;stroke-miterlimit:4;stroke-dasharray:none;stroke-opacity:1"
        d="M 132.29167,7.792882e-7 66.145833,132.29167" id="path851" inkscape:connector-type="polyline"
        inkscape:connector-curvature="0" />
      <path
        style="fill:none;fill-rule:evenodd;stroke:#000000;stroke-width:15.875;stroke-linecap:round;stroke-linejoin:miter;stroke-miterlimit:4;stroke-dasharray:none;stroke-opacity:1"
        d="M 132.29167,264.58333 V 7.792882e-7" id="path853" inkscape:connector-type="polyline"
        inkscape:connector-curvature="0" />
      <path
        style="fill:none;fill-rule:evenodd;stroke:#000000;stroke-width:15.875;stroke-linecap:round;stroke-linejoin:miter;stroke-miterlimit:4;stroke-dasharray:none;stroke-opacity:1"
        d="m 198.4375,132.29166 -132.291667,1e-5" id="path855" inkscape:connector-type="polyline"
        inkscape:connector-curvature="0" />
      <path
        style="fill:none;fill-rule:evenodd;stroke:#000000;stroke-width:15.875;stroke-linecap:round;stroke-linejoin:miter;stroke-miterlimit:4;stroke-dasharray:none;stroke-opacity:1"
        d="M 178.59375,66.145833 218.28125,2.3869541e-6" id="path871" inkscape:connector-type="polyline"
        inkscape:connector-curvature="0" />
      <path
        style="fill:none;fill-rule:evenodd;stroke:#000000;stroke-width:15.875;stroke-linecap:round;stroke-linejoin:miter;stroke-miterlimit:4;stroke-dasharray:none;stroke-opacity:1"
        d="M 284.42708,99.218751 218.28125,2.3869541e-6" id="path873" inkscape:connector-type="polyline"
        inkscape:connector-curvature="0" />
      <path
        style="fill:none;fill-rule:evenodd;stroke:#000000;stroke-width:15.875;stroke-linecap:round;stroke-linejoin:miter;stroke-miterlimit:4;stroke-dasharray:none;stroke-opacity:1"
        d="M 218.28125,132.29166 284.42708,99.218749" id="path875" inkscape:connector-type="polyline"
        inkscape:connector-curvature="0" />
      <path
        style="fill:none;fill-rule:evenodd;stroke:#000000;stroke-width:15.875;stroke-linecap:round;stroke-linejoin:miter;stroke-miterlimit:4;stroke-dasharray:none;stroke-opacity:1"
        d="M 284.42708,165.36458 218.28125,132.29166" id="path877" inkscape:connector-type="polyline"
        inkscape:connector-curvature="0" />
      <path
        style="fill:none;fill-rule:evenodd;stroke:#000000;stroke-width:15.875;stroke-linecap:round;stroke-linejoin:miter;stroke-miterlimit:4;stroke-dasharray:none;stroke-opacity:1"
        d="m 218.28125,264.58333 66.14583,-99.21875" id="path879" inkscape:connector-type="polyline"
        inkscape:connector-curvature="0" />
      <path
        style="fill:none;fill-rule:evenodd;stroke:#000000;stroke-width:15.875;stroke-linecap:round;stroke-linejoin:miter;stroke-miterlimit:4;stroke-dasharray:none;stroke-opacity:1"
        d="m 178.59375,198.4375 39.6875,66.14583" id="path881" inkscape:connector-type="polyline"
        inkscape:connector-curvature="0" />
    </g>
  </svg>

<?xml version="1.0" encoding="UTF-8"?>
<svg version="1.1" viewBox="0 0 396.87 396.88" xmlns="http://www.w3.org/2000/svg">
<g transform="translate(79.375 66.146)" stroke-linecap="round">
<circle cx="119.06" cy="132.29" r="198.44" fill="#28a745" stroke-linejoin="round" stroke-width="5.8487"/>
<path d="m0 132.29v-132.29" fill="none" stroke="#000" stroke-width="15.875"/>
<path d="m66.146 132.29-66.146-132.29" fill="none" stroke="#000" stroke-width="15.875"/>
<path d="m132.29 7.7929e-7 -66.146 132.29" fill="none" stroke="#000" stroke-width="15.875"/>
<path d="m132.29 264.58v-264.58" fill="none" stroke="#000" stroke-width="15.875"/>
<path d="m198.44 132.29-132.29 1e-5" fill="none" stroke="#000" stroke-width="15.875"/>
<path d="m178.59 66.146 39.688-66.146" fill="none" stroke="#000" stroke-width="15.875"/>
<path d="m284.43 99.219-66.146-99.219" fill="none" stroke="#000" stroke-width="15.875"/>
<path d="m218.28 132.29 66.146-33.073" fill="none" stroke="#000" stroke-width="15.875"/>
<path d="m284.43 165.36-66.146-33.073" fill="none" stroke="#000" stroke-width="15.875"/>
<path d="m218.28 264.58 66.146-99.219" fill="none" stroke="#000" stroke-width="15.875"/>
<path d="m178.59 198.44 39.688 66.146" fill="none" stroke="#000" stroke-width="15.875"/>
</g>
</svg>
<!-- https://www.svgminify.com/ -->
